modules/hawcons-filled/icons/icon-28-information.svg

<?xml version="1.0" encoding="UTF-8" standalone="no"?>
<svg width="32px" height="32px" viewBox="0 0 32 32" version="1.1" xmlns="http://www.w3.org/2000/svg" xmlns:xlink="http://www.w3.org/1999/xlink" xmlns:sketch="http://www.bohemiancoding.com/sketch/ns">
    <!-- Generator: Sketch 3.0.3 (7891) - http://www.bohemiancoding.com/sketch -->
    <title>icon 28 information</title>
    <desc>Created with Sketch.</desc>
    <defs></defs>
    <g id="Page-1" stroke="none" stroke-width="1" fill="none" fill-rule="evenodd" sketch:type="MSPage">
        <g id="icon-28-information" sketch:type="MSArtboardGroup" fill="#929292">
            <path d="M16.5,26 C21.7467054,26 26,21.7467054 26,16.5 C26,11.2532946 21.7467054,7 16.5,7 C11.2532946,7 7,11.2532946 7,16.5 C7,21.7467054 11.2532946,26 16.5,26 L16.5,26 Z M17,21 L17,16 L16.5,16 L14,16 L14,17 L16,17 L16,21 L14,21 L14,22 L19,22 L19,21 L17,21 L17,21 Z M16.5,14 C17.3284272,14 18,13.3284272 18,12.5 C18,11.6715728 17.3284272,11 16.5,11 C15.6715728,11 15,11.6715728 15,12.5 C15,13.3284272 15.6715728,14 16.5,14 L16.5,14 Z" id="information" sketch:type="MSShapeGroup"></path>
        </g>
    </g>
</svg>

<svg width="32" height="32" viewBox="0 0 32 32" xmlns="http://www.w3.org/2000/svg"><path d="M16.5 26a9.5 9.5 0 1 0 0-19 9.5 9.5 0 0 0 0 19zm.5-5v-5h-3v1h2v4h-2v1h5v-1h-2zm-.5-7a1.5 1.5 0 1 0 0-3 1.5 1.5 0 0 0 0 3z" fill="#929292" fill-rule="evenodd"/></svg>
